X:86
T:Jesus Grant That Balm and Healing
%%stretchlast false
M:4/4
L:1/4
K:Bb clef=C1
"^vi"[GBdg] "^iii¹"[FAd] "^IV"[EBeg] "^vii°¹"[Ccea] | "^I"[B,dfb] "^vii°¹"[Ccea]/ "^ii7"[CBeg]/ "^III"[DAd_g] [D_Gd] | "^V/vi"[D_Gda] "^vi"[Gdb] "^ii¹"[EGgc'] "^vi²"[Ddgb] | "^viiø7¹"[Cega] "^V/vi"[Dd_ga] "^vi"[G,Bg]2 | [GBdg] "^iii¹"[FAd] "^IV"[EBeg] "^vii°¹"[Ccea] | "^I"[B,dfb] "^vii°¹"[Ccea]/ "^ii7"[CBeg]/ "^III"[DAd_g] [D_Gd] | "^V/vi"[D_Gda] "^vi"[Gdb] "^ii¹"[EGgc'] "^vi²"[Ddgb] | "^viiø7¹"[Cega] "^V/vi"[Dd_ga] "^vi"[G,Bg]2 | "^I"[B,Bdf] "^V¹"[A,cf] "^I"[B,Bdf] [B,FBd] | "^IV¹"[G,GBe]/ "^ii²"[G,Gce]/ "^iii°¹"[F,_Adf] "^IV"[E,Beg]2 | "^I"[B,Bdf] "^V¹"[A,Fcf] "^IV¹"[G,GBe] "^I"[B,FBd] | [F,FBc] "^V"[F,FAc]/ "^V7"[F,EAc]/ "^I"[B,DB]2 | [Bdfb] "^vi"[Gdgb] "^viiø7¹"[Cega] "^iii"[Ddfa]/ "^iii7"[Dcfa]/ | "^IV"[EBeg] "^vii°¹"[Ccea] "^III"[DAd_g] [D_Gd] | "^V/vi"[D_Gda] "^vi"[Gdb] "^ii"[CGec'] "^vi"[G,Gdb] | "^V/vi"[D_Gda] "^vi¹"[B,Gdb]/ "^vi"[G,Gdb]/ [DGda] "^V/vi"[D_Gda] | "^vi"[G,GBg]4 |]
